X:14
T:Welsh Fusileers
M:6/8
L:1/8
K:AMix
A   |def efg|fag Tf2e|dBB TB2A|dBB TB2A   |def efg|fag Tf2e|dAA A2A|dAA A2:|
f/g/|agf gfe|fed  efg|dBB TB2A|dBB TB2f/g/|agf gfe|fed  efg|dAA A2A|dAA A2:|

% @@@@@@@@@@@@@@@@@@@@@@@@@@@@@@@@@@

%% 15. ===============================================================================

% +&M&arion &A&ilon.+
%
% *SETT and cast off one pair, sett and cast up.  *Cross over, and figure in; lead
% down one pair and cast up.  *THE Man figures round the 2d Woman, and the Woman
% round the 1st Man at the same time; change the pairs, and that again.  *Sett cross
% Partners, and turn own Partner the last time.

% @@@@@@@@@@@@@@@@@@@@@@@@@@@@@@@@@@

